X:139
T:Mrs. Casey. HSJJ.142
M:6/8
L:1/8
Q:3/8=120
S:HSJ Jackson,Wyresdale,Lancs.1823
R:.Jig
O:England
A:Lancashire
H:1823
Z:vmp.Chris Partington.
K:C
(e/d/)|c2A ABA|G2G GAG|A2A ABA|(f3e2)d|!
c2A ABA|G2G GAG|A2A ABA|c3c2:|!
|d|c2de2f|g2ag2e|c2de2f|g3-g2g|!
a2fg2e|f2de2c|A2A ABA|f3″ DC”e2d|]

